app/assets/images/idv/real-id-and-fair-evidence-documents.svg

<svg width="112" height="108" viewBox="0 0 112 108" fill="none" xmlns="http://www.w3.org/2000/svg">
<circle cx="71" cy="40" r="40" fill="#EBF3FA"/>
<path fill-rule="evenodd" clip-rule="evenodd" d="M82.9672 63.4109H4.9495C2.7878 63.4109 1.03516 61.6199 1.03516 59.4109V20.5879C1.03516 18.3789 2.7878 16.5879 4.9495 16.5879H82.9672C85.1289 16.5879 86.8815 18.3789 86.8815 20.5879V59.4109C86.8815 61.6199 85.1289 63.4109 82.9672 63.4109" fill="white"/>
<path fill-rule="evenodd" clip-rule="evenodd" d="M82.9672 63.4109H4.9495C2.7878 63.4109 1.03516 61.6199 1.03516 59.4109V20.5879C1.03516 18.3789 2.7878 16.5879 4.9495 16.5879H82.9672C85.1289 16.5879 86.8815 18.3789 86.8815 20.5879V59.4109C86.8815 61.6199 85.1289 63.4109 82.9672 63.4109Z" stroke="#112E51"/>
<path fill-rule="evenodd" clip-rule="evenodd" d="M28.2119 58.3949H8.10286C7.21485 58.3949 6.49414 57.7338 6.49414 56.9192V33.3077C6.49414 32.4932 7.21485 31.832 8.10286 31.832H28.2119C29.0999 31.832 29.8206 32.4932 29.8206 33.3077V56.9192C29.8206 57.7338 29.0999 58.3949 28.2119 58.3949Z" fill="#EBF3FA"/>
<mask id="mask0_1742_7760" style="mask-type:luminance" maskUnits="userSpaceOnUse" x="8" y="34" width="20" height="25">
<path fill-rule="evenodd" clip-rule="evenodd" d="M12.5731 40.0174V40.6232C12.0229 40.7161 11.603 41.2002 11.603 41.7838V41.7838V43.1573C11.603 43.7516 12.0374 44.2415 12.602 44.3229V44.3229C12.8031 46.266 14.0056 47.9083 15.6787 48.7105V48.7105V50.5147H15.2902C11.4309 50.5147 8.30273 53.6776 8.30273 57.5795V57.5795V58.4615H27.7127V57.5795C27.7127 53.6776 24.5838 50.5147 20.7253 50.5147V50.5147H20.3368V48.7105C22.0098 47.9083 23.2124 46.266 23.4126 44.3229V44.3229C23.9781 44.2415 24.4125 43.7516 24.4125 43.1573V43.1573V41.7838C24.4125 41.2002 23.9934 40.7161 23.4424 40.6232V40.6232V40.0174C23.4424 36.9836 21.0092 34.5234 18.0081 34.5234V34.5234C15.0063 34.5234 12.5731 36.9836 12.5731 40.0174V40.0174Z" fill="white"/>
</mask>
<g mask="url(#mask0_1742_7760)">
<path fill-rule="evenodd" clip-rule="evenodd" d="M1.17383 62.5717H34.8387V30.4141H1.17383V62.5717Z" fill="#C8D3DD"/>
</g>
<path d="M56.1426 24.7188C56.1426 23.6142 57.038 22.7188 58.1426 22.7188H81.4805C82.585 22.7188 83.4805 23.6142 83.4805 24.7187V48.0566C83.4805 49.1612 82.585 50.0566 81.4805 50.0566H58.1426C57.038 50.0566 56.1426 49.1612 56.1426 48.0566V24.7188Z" fill="#EBF3FA"/>
<rect x="6.61328" y="22.7207" width="44.4873" height="3.34375" rx="1.67188" fill="#C8D3DD"/>
<rect x="34.7988" y="30.6445" width="16.3027" height="3.34375" rx="1.67188" fill="#C8D3DD"/>
<rect x="34.7988" y="38.5703" width="16.3027" height="3.34375" rx="1.67188" fill="#C8D3DD"/>
<rect x="34.7988" y="46.4961" width="16.3027" height="3.34375" rx="1.67188" fill="#C8D3DD"/>
<rect x="34.7988" y="55.0234" width="12.3" height="3.34375" rx="1.67188" fill="#C8D3DD"/>
<rect x="52.5684" y="55.0234" width="29.9717" height="3.34375" rx="1.67188" fill="#C8D3DD"/>
<circle cx="69.8115" cy="36.3896" r="10.9443" fill="#0071BB"/>
<path d="M69.5674 26.5303C69.6436 26.2958 69.9754 26.2958 70.0516 26.5303L72.1328 32.9354C72.1668 33.0403 72.2646 33.1113 72.3749 33.1113H79.1096C79.3562 33.1113 79.4587 33.4269 79.2592 33.5718L73.8107 37.5304C73.7215 37.5952 73.6842 37.7101 73.7182 37.815L75.7994 44.2201C75.8756 44.4546 75.6071 44.6496 75.4076 44.5047L69.9591 40.5461C69.8699 40.4813 69.7491 40.4813 69.6599 40.5461L64.2114 44.5047C64.0119 44.6496 63.7434 44.4546 63.8196 44.2201L65.9008 37.815C65.9349 37.7101 65.8975 37.5952 65.8083 37.5304L60.3598 33.5718C60.1603 33.4269 60.2628 33.1113 60.5094 33.1113H67.2441C67.3544 33.1113 67.4522 33.0403 67.4863 32.9354L69.5674 26.5303Z" fill="white"/>
<circle cx="71.4648" cy="40.1133" r="40" fill="#EBF3FA"/>
<path fill-rule="evenodd" clip-rule="evenodd" d="M84.7602 63.5242H5.03516C2.82616 63.5242 1.03516 61.7332 1.03516 59.5242V20.7012C1.03516 18.4922 2.82616 16.7012 5.03516 16.7012H84.7602C86.9692 16.7012 88.7602 18.4922 88.7602 20.7012V59.5242C88.7602 61.7332 86.9692 63.5242 84.7602 63.5242" fill="white"/>
<path fill-rule="evenodd" clip-rule="evenodd" d="M84.7602 63.5242H5.03516C2.82616 63.5242 1.03516 61.7332 1.03516 59.5242V20.7012C1.03516 18.4922 2.82616 16.7012 5.03516 16.7012H84.7602C86.9692 16.7012 88.7602 18.4922 88.7602 20.7012V59.5242C88.7602 61.7332 86.9692 63.5242 84.7602 63.5242Z" stroke="#112E51"/>
<path d="M56.1426 24.832C56.1426 23.7275 57.038 22.832 58.1426 22.832H81.4805C82.585 22.832 83.4805 23.7275 83.4805 24.832V48.1699C83.4805 49.2745 82.585 50.1699 81.4805 50.1699H58.1426C57.038 50.1699 56.1426 49.2745 56.1426 48.1699V24.832Z" fill="#EBF3FA"/>
<rect x="6.61328" y="22.834" width="44.4873" height="3.34375" rx="1.67188" fill="#C8D3DD"/>
<rect x="6.61328" y="22.834" width="44.4873" height="3.34375" rx="1.67188" fill="#C8D3DD"/>
<rect x="34.7988" y="30.7578" width="16.3027" height="3.34375" rx="1.67188" fill="#C8D3DD"/>
<rect x="34.7988" y="38.6836" width="16.3027" height="3.34375" rx="1.67188" fill="#C8D3DD"/>
<rect x="34.7988" y="46.6094" width="16.3027" height="3.34375" rx="1.67188" fill="#C8D3DD"/>
<rect x="34.7988" y="55.1367" width="12.3" height="3.34375" rx="1.67188" fill="#C8D3DD"/>
<rect x="52.5684" y="55.1367" width="29.9717" height="3.34375" rx="1.67188" fill="#C8D3DD"/>
<circle cx="17.9443" cy="44.9443" r="10.9443" fill="#0071BB"/>
<path d="M17.7002 35.085C17.7764 34.8505 18.1082 34.8505 18.1844 35.085L20.2656 41.4901C20.2997 41.595 20.3974 41.666 20.5077 41.666H27.2424C27.489 41.666 27.5915 41.9815 27.392 42.1265L21.9435 46.0851C21.8543 46.1499 21.817 46.2648 21.8511 46.3697L23.9322 52.7748C24.0084 53.0093 23.74 53.2043 23.5404 53.0594L18.092 49.1008C18.0027 49.036 17.8819 49.036 17.7927 49.1008L12.3442 53.0594C12.1447 53.2043 11.8762 53.0093 11.9525 52.7748L14.0336 46.3697C14.0677 46.2648 14.0303 46.1499 13.9411 46.0851L8.49263 42.1265C8.29311 41.9815 8.39565 41.666 8.64226 41.666H15.377C15.4872 41.666 15.585 41.595 15.6191 41.4901L17.7002 35.085Z" fill="white"/>
<rect x="45.8105" y="29.6133" width="54.7831" height="68.7505" rx="1.12798" fill="white" stroke="#112E51"/>
<rect x="34.5" y="37.834" width="54.7831" height="68.7505" rx="1.12798" fill="white" stroke="#112E51"/>
<rect x="39.4883" y="43.8203" width="22.4023" height="2.21133" rx="1.10567" fill="#C8D3DD"/>
<rect x="39.4883" y="48.5918" width="15.7891" height="2.21133" rx="1.10567" fill="#C8D3DD"/>
<rect x="39.4883" y="58.6348" width="15.7891" height="2.21133" rx="1.10567" fill="#C8D3DD"/>
<rect x="39.4883" y="82.7754" width="15.7891" height="2.21133" rx="1.10567" fill="#C8D3DD"/>
<rect x="39.4883" y="64.6699" width="44.7598" height="2.21133" rx="1.10567" fill="#C8D3DD"/>
<rect x="39.4883" y="76.7402" width="14.7939" height="2.21133" rx="1.10567" fill="#C8D3DD"/>
<rect x="55.2773" y="76.7402" width="28.9707" height="2.21133" rx="1.10567" fill="#C8D3DD"/>
<rect x="39.4883" y="70.7051" width="27.4736" height="2.21133" rx="1.10567" fill="#C8D3DD"/>
<rect x="68.2344" y="70.7051" width="16.0156" height="2.21133" rx="1.10567" fill="#C8D3DD"/>
<rect x="71.7012" y="43.8203" width="12.5137" height="2.21133" rx="1.10567" fill="#C8D3DD"/>
</svg>

<svg xmlns="http://www.w3.org/2000/svg" width="112" height="108" fill="none" viewBox="0 0 112 108"><circle cx="71" cy="40" r="40" fill="#EBF3FA"/><path fill="#fff" fill-rule="evenodd" d="M82.967 63.41H4.95c-2.162 0-3.915-1.79-3.915-4V20.589c0-2.21 1.753-4 3.914-4h78.018c2.162 0 3.915 1.79 3.915 4V59.41c0 2.209-1.753 4-3.915 4" clip-rule="evenodd"/><path stroke="#112E51" d="M82.967 63.41H4.95c-2.162 0-3.915-1.79-3.915-4V20.589c0-2.21 1.753-4 3.914-4h78.018c2.162 0 3.915 1.79 3.915 4V59.41c0 2.209-1.753 4-3.915 4Z" clip-rule="evenodd"/><path fill="#EBF3FA" fill-rule="evenodd" d="M28.212 58.395H8.102c-.887 0-1.608-.661-1.608-1.476V33.308c0-.815.72-1.476 1.609-1.476h20.109c.888 0 1.609.661 1.609 1.476v23.611c0 .815-.721 1.476-1.61 1.476" clip-rule="evenodd"/><mask id="a" width="20" height="25" x="8" y="34" maskUnits="userSpaceOnUse" style="mask-type:luminance"><path fill="#fff" fill-rule="evenodd" d="M12.573 40.017v.606c-.55.093-.97.577-.97 1.16v1.374c0 .595.434 1.085.999 1.166a5.5 5.5 0 0 0 3.077 4.388v1.804h-.389c-3.86 0-6.987 3.163-6.987 7.065v.882h19.41v-.883c0-3.901-3.13-7.064-6.988-7.064h-.388V48.71a5.49 5.49 0 0 0 3.076-4.388c.565-.081 1-.571 1-1.166v-1.373c0-.584-.42-1.068-.97-1.16v-.607c0-3.033-2.434-5.494-5.435-5.494-3.002 0-5.435 2.46-5.435 5.494" clip-rule="evenodd"/></mask><g mask="url(#a)"><path fill="#C8D3DD" fill-rule="evenodd" d="M1.174 62.572h33.665V30.414H1.174z" clip-rule="evenodd"/></g><path fill="#EBF3FA" d="M56.143 24.719a2 2 0 0 1 2-2H81.48a2 2 0 0 1 2 2v23.338a2 2 0 0 1-2 2H58.143a2 2 0 0 1-2-2z"/><rect width="44.487" height="3.344" x="6.613" y="22.721" fill="#C8D3DD" rx="1.672"/><rect width="16.303" height="3.344" x="34.799" y="30.645" fill="#C8D3DD" rx="1.672"/><rect width="16.303" height="3.344" x="34.799" y="38.57" fill="#C8D3DD" rx="1.672"/><rect width="16.303" height="3.344" x="34.799" y="46.496" fill="#C8D3DD" rx="1.672"/><rect width="12.3" height="3.344" x="34.799" y="55.023" fill="#C8D3DD" rx="1.672"/><rect width="29.972" height="3.344" x="52.568" y="55.023" fill="#C8D3DD" rx="1.672"/><circle cx="69.811" cy="36.39" r="10.944" fill="#0071BB"/><path fill="#fff" d="M69.567 26.53a.255.255 0 0 1 .485 0l2.08 6.405a.25.25 0 0 0 .243.176h6.735c.246 0 .349.316.15.46l-5.45 3.96a.255.255 0 0 0-.092.284L75.8 44.22a.255.255 0 0 1-.391.285l-5.449-3.959a.255.255 0 0 0-.3 0l-5.448 3.959a.255.255 0 0 1-.391-.285l2.08-6.405a.255.255 0 0 0-.092-.285l-5.448-3.958a.255.255 0 0 1 .15-.46h6.734c.11 0 .208-.072.242-.177z"/><circle cx="71.465" cy="40.113" r="40" fill="#EBF3FA"/><path fill="#fff" fill-rule="evenodd" d="M84.76 63.524H5.035a4 4 0 0 1-4-4V20.701a4 4 0 0 1 4-4H84.76a4 4 0 0 1 4 4v38.823a4 4 0 0 1-4 4" clip-rule="evenodd"/><path stroke="#112E51" d="M84.76 63.524H5.035a4 4 0 0 1-4-4V20.701a4 4 0 0 1 4-4H84.76a4 4 0 0 1 4 4v38.823a4 4 0 0 1-4 4Z" clip-rule="evenodd"/><path fill="#EBF3FA" d="M56.143 24.832a2 2 0 0 1 2-2H81.48a2 2 0 0 1 2 2V48.17a2 2 0 0 1-2 2H58.143a2 2 0 0 1-2-2z"/><rect width="44.487" height="3.344" x="6.613" y="22.834" fill="#C8D3DD" rx="1.672"/><rect width="44.487" height="3.344" x="6.613" y="22.834" fill="#C8D3DD" rx="1.672"/><rect width="16.303" height="3.344" x="34.799" y="30.758" fill="#C8D3DD" rx="1.672"/><rect width="16.303" height="3.344" x="34.799" y="38.684" fill="#C8D3DD" rx="1.672"/><rect width="16.303" height="3.344" x="34.799" y="46.609" fill="#C8D3DD" rx="1.672"/><rect width="12.3" height="3.344" x="34.799" y="55.137" fill="#C8D3DD" rx="1.672"/><rect width="29.972" height="3.344" x="52.568" y="55.137" fill="#C8D3DD" rx="1.672"/><circle cx="17.944" cy="44.944" r="10.944" fill="#0071BB"/><path fill="#fff" d="M17.7 35.085a.255.255 0 0 1 .484 0l2.082 6.405a.255.255 0 0 0 .242.176h6.734c.247 0 .35.316.15.46l-5.448 3.96a.25.25 0 0 0-.093.284l2.081 6.405a.255.255 0 0 1-.392.284l-5.448-3.958a.255.255 0 0 0-.3 0l-5.448 3.958a.255.255 0 0 1-.391-.284l2.08-6.405a.255.255 0 0 0-.092-.285l-5.448-3.959a.255.255 0 0 1 .15-.46h6.734c.11 0 .208-.071.242-.176z"/><rect width="54.783" height="68.751" x="45.81" y="29.613" fill="#fff" stroke="#112E51" rx="1.128"/><rect width="54.783" height="68.751" x="34.5" y="37.834" fill="#fff" stroke="#112E51" rx="1.128"/><rect width="22.402" height="2.211" x="39.488" y="43.82" fill="#C8D3DD" rx="1.106"/><rect width="15.789" height="2.211" x="39.488" y="48.592" fill="#C8D3DD" rx="1.106"/><rect width="15.789" height="2.211" x="39.488" y="58.635" fill="#C8D3DD" rx="1.106"/><rect width="15.789" height="2.211" x="39.488" y="82.775" fill="#C8D3DD" rx="1.106"/><rect width="44.76" height="2.211" x="39.488" y="64.67" fill="#C8D3DD" rx="1.106"/><rect width="14.794" height="2.211" x="39.488" y="76.74" fill="#C8D3DD" rx="1.106"/><rect width="28.971" height="2.211" x="55.277" y="76.74" fill="#C8D3DD" rx="1.106"/><rect width="27.474" height="2.211" x="39.488" y="70.705" fill="#C8D3DD" rx="1.106"/><rect width="16.016" height="2.211" x="68.234" y="70.705" fill="#C8D3DD" rx="1.106"/><rect width="12.514" height="2.211" x="71.701" y="43.82" fill="#C8D3DD" rx="1.106"/></svg>
